packages/core/src/svgs/cre.svg

<svg width="24" height="24" viewBox="0 0 24 24" fill="none" xmlns="http://www.w3.org/2000/svg">
<g clip-path="url(#clip0_31_8719)">
<path d="M0 0H24V24H0V0Z" fill="#35C380"/>
<path d="M15.2497 14.4432C15.0345 14.5058 14.8194 14.5713 14.5811 14.5713H7.03826C6.63026 14.5713 6.22311 14.9249 6.01954 15.3115L5.15854 16.9435C5.11311 17.0305 5.17011 17.1428 5.26054 17.1428H12.7473C13.5855 17.1428 14.3673 16.6199 14.786 15.8223L15.3744 14.63C15.431 14.5306 15.3517 14.4059 15.2497 14.4432ZM18.6937 7.29719C17.9235 7.6499 16.4848 7.70176 15.7601 7.71419H11.0823C10.2101 7.71419 9.40611 8.24133 8.9754 9.08562L8.36854 10.166C8.32311 10.2668 8.39126 10.3803 8.49283 10.355C8.71997 10.292 8.9574 10.2856 9.19568 10.2856H16.3764C16.988 10.2856 17.6064 9.82876 17.912 9.24933L18.8407 7.47333C18.8973 7.37262 18.7953 7.24662 18.6937 7.29719ZM17.0115 10.9276H16.9893C16.7625 10.988 16.5247 11.1428 16.2868 11.1428H8.7774C8.36983 11.1428 7.99611 11.243 7.79211 11.6189L6.84626 13.5925C6.80126 13.6778 6.85783 13.7866 6.94826 13.7866H6.97097C7.19726 13.7262 7.43511 13.7142 7.67297 13.7142H14.8541C15.4657 13.7142 16.0605 13.0623 16.3661 12.5043L17.1135 11.1218C17.159 11.0369 17.1024 10.9276 17.0115 10.9276Z" fill="white"/>
</g>
<defs>
<clipPath id="clip0_31_8719">
<rect width="24" height="24" fill="white"/>
</clipPath>
</defs>
</svg>

<svg xmlns="http://www.w3.org/2000/svg" width="24" height="24" fill="none" viewBox="0 0 24 24"><g clip-path="url(#a)"><path fill="#35C380" d="M0 0h24v24H0z"/><path fill="#fff" d="M15.25 14.443c-.216.063-.43.128-.669.128H7.038c-.408 0-.815.354-1.018.74l-.861 1.633c-.046.087.011.199.102.199h7.486c.838 0 1.62-.523 2.039-1.32l.588-1.193c.057-.1-.022-.224-.124-.187m3.444-7.146c-.77.353-2.21.405-2.934.417h-4.678c-.872 0-1.676.527-2.107 1.372l-.606 1.08c-.046.1.022.214.124.189.227-.063.464-.07.703-.07h7.18c.612 0 1.23-.456 1.536-1.036l.929-1.776c.056-.1-.046-.226-.147-.176m-1.682 3.63h-.023c-.227.061-.464.216-.702.216h-7.51c-.407 0-.78.1-.985.476l-.946 1.973c-.045.086.012.195.102.195h.023c.226-.06.464-.073.702-.073h7.181c.612 0 1.207-.652 1.512-1.21l.747-1.382c.046-.085-.01-.194-.101-.194"/></g><defs><clipPath id="a"><path fill="#fff" d="M0 0h24v24H0z"/></clipPath></defs></svg>
